brandFactory_export/3.Masa/Conexiones_3Masa.svg

<?xml version="1.0" encoding="UTF-8"?>
<svg width="24px" height="24px" viewBox="0 0 24 24" version="1.1" xmlns="http://www.w3.org/2000/svg" xmlns:xlink="http://www.w3.org/1999/xlink">
    <title>3.Masa/Conexiones_3Masa</title>
    <g id="Symbols" stroke="none" stroke-width="1" fill="none" fill-rule="evenodd">
        <g id="3.Masa/Conexiones_3Masa" fill="#5CB615" fill-rule="nonzero">
            <path d="M19.0453782,11.9260504 C17.9327731,11.9260504 16.9277311,12.3394958 16.1378151,12.9983193 L14.3092437,11.394958 C14.8369748,10.6621849 15.1596639,9.76806723 15.1596639,8.79663866 C15.1596639,8.68235294 15.1327731,8.57478992 15.1260504,8.46386555 L18.0067227,7.61344538 C18.5243697,8.4605042 19.4521008,9.03193277 20.5176471,9.03193277 C22.1478992,9.03193277 23.4689076,7.70756303 23.4689076,6.08067227 C23.4689076,4.45378151 22.1445378,3.12941176 20.5176471,3.12941176 C18.8907563,3.12941176 17.5630252,4.45378151 17.5630252,6.08067227 C17.5630252,6.10756303 17.5697479,6.12773109 17.5697479,6.15462185 L14.7630252,6.98151261 C14.0638655,5.42857143 12.507563,4.33613445 10.6957983,4.33613445 C9.45882353,4.33613445 8.34285714,4.84033613 7.53277311,5.65378151 L5.74453782,4.1210084 C5.96302521,3.72773109 6.10084034,3.27731092 6.10084034,2.79327731 C6.10084034,1.26722689 4.85714286,0.0268907563 3.33109244,0.0268907563 C1.80504202,0.0268907563 0.564705882,1.26722689 0.564705882,2.79327731 C0.564705882,4.31932773 1.80504202,5.55966387 3.33109244,5.55966387 C3.81848739,5.55966387 4.26890756,5.42521008 4.66554622,5.20336134 L6.66554622,6.91428571 C6.39663866,7.48907563 6.23529412,8.1210084 6.23529412,8.79327731 C6.23529412,9.74453782 6.54117647,10.6252101 7.05210084,11.3512605 L5.42521008,12.9445378 C4.85042017,12.4773109 4.13109244,12.1848739 3.33445378,12.1848739 C1.49915966,12.1848739 0.00336134454,13.6773109 0.00336134454,15.512605 C0.00336134454,17.3478992 1.49579832,18.8403361 3.33445378,18.8403361 C5.17310924,18.8403361 6.66554622,17.3478992 6.66554622,15.512605 C6.66554622,15.0285714 6.55462185,14.5680672 6.36638655,14.1512605 L8.13109244,12.4268908 C8.85714286,12.9411765 9.74117647,13.2504202 10.6991597,13.2504202 C11.6369748,13.2504202 12.507563,12.9579832 13.2268908,12.4605042 L15.1428571,14.1411765 C14.7260504,14.8302521 14.4739496,15.6268908 14.4739496,16.4907563 C14.4739496,17.0857143 14.594958,17.6470588 14.8033613,18.1680672 L12.810084,19.0857143 C12.302521,18.497479 11.5596639,18.1142857 10.7193277,18.1142857 C9.19327731,18.1142857 7.94957983,19.3546218 7.94957983,20.8806723 C7.94957983,22.4033613 9.19327731,23.6470588 10.7193277,23.6470588 C12.2453782,23.6470588 13.4857143,22.4067227 13.4857143,20.8806723 C13.4857143,20.7394958 13.4655462,20.605042 13.4453782,20.4705882 L15.610084,19.4756303 C16.4504202,20.4403361 17.6739496,21.0655462 19.0487395,21.0655462 C21.5731092,21.0655462 23.6268908,19.0151261 23.6268908,16.4941176 C23.6235294,13.9798319 21.5697479,11.9260504 19.0453782,11.9260504" id="Path"></path>
        </g>
    </g>
</svg>

<svg width="24" height="24" viewBox="0 0 24 24" xmlns="http://www.w3.org/2000/svg"><path d="M19.045 11.926a4.522 4.522 0 00-2.907 1.072l-1.829-1.603c.528-.733.85-1.627.85-2.598 0-.115-.026-.222-.033-.333l2.88-.85a2.941 2.941 0 002.512 1.418 2.953 2.953 0 002.95-2.951 2.955 2.955 0 00-2.95-2.952 2.958 2.958 0 00-2.955 2.952c0 .027.007.047.007.074l-2.807.827c-.7-1.553-2.255-2.646-4.067-2.646a4.447 4.447 0 00-3.163 1.318L5.745 4.12c.218-.393.356-.844.356-1.328a2.769 2.769 0 00-5.536 0A2.769 2.769 0 003.33 5.56c.487 0 .938-.135 1.335-.357l2 1.711a4.415 4.415 0 00-.43 1.88c0 .95.305 1.831.816 2.557l-1.627 1.594a3.3 3.3 0 00-2.09-.76 3.334 3.334 0 00-3.332 3.328 3.332 3.332 0 006.663 0c0-.484-.111-.945-.3-1.362l1.765-1.724a4.429 4.429 0 005.096.034l1.916 1.68a4.516 4.516 0 00-.67 2.35c0 .595.122 1.156.33 1.677l-1.993.918a2.755 2.755 0 00-2.09-.972 2.772 2.772 0 00-2.77 2.767 2.774 2.774 0 002.77 2.766 2.769 2.769 0 002.766-2.766c0-.142-.02-.276-.04-.41l2.164-.995c.84.964 2.064 1.59 3.439 1.59a4.58 4.58 0 004.578-4.572 4.586 4.586 0 00-4.582-4.568" fill="#5CB615" fill-rule="nonzero"/></svg>
